public/images/menu.svg

<svg width="57" height="57" viewBox="0 0 57 57" fill="none" xmlns="http://www.w3.org/2000/svg">
<rect x="1" y="1" width="55" height="55" rx="27.5" fill="#333333" stroke="#FCAF45" stroke-width="2"/>
<path d="M28.5 9C30.3944 9 31.9444 10.755 31.9444 12.9C31.9444 15.045 30.3944 16.8 28.5 16.8C26.6056 16.8 25.0556 15.045 25.0556 12.9C25.0556 10.755 26.6056 9 28.5 9ZM44 22.65H33.6667V48H30.2222V36.3H26.7778V48H23.3333V22.65H13V18.75H44V22.65Z" fill="url(#paint0_linear_4:44)"/>
<defs>
<linearGradient id="paint0_linear_4:44" x1="28.5" y1="9" x2="28.5" y2="48" gradientUnits="userSpaceOnUse">
<stop stop-color="#FCAF45"/>
<stop offset="0.197917" stop-color="#FCAF45"/>
<stop offset="0.255208" stop-color="#2BDE73"/>
<stop offset="0.505208" stop-color="#405DE6"/>
<stop offset="0.572817" stop-color="#5851DB"/>
<stop offset="0.572917" stop-color="#FCAF45"/>
<stop offset="0.614583" stop-color="#F15394"/>
<stop offset="0.973958" stop-color="#EF468C"/>
<stop offset="1"/>
</linearGradient>
</defs>
</svg>

<svg fill="none" height="57" width="57" xmlns="http://www.w3.org/2000/svg"><linearGradient id="a" gradientUnits="userSpaceOnUse" x1="28.5" x2="28.5" y1="9" y2="48"><stop offset="0" stop-color="#fcaf45"/><stop offset=".198" stop-color="#fcaf45"/><stop offset=".255" stop-color="#2bde73"/><stop offset=".505" stop-color="#405de6"/><stop offset=".573" stop-color="#5851db"/><stop offset=".573" stop-color="#fcaf45"/><stop offset=".615" stop-color="#f15394"/><stop offset=".974" stop-color="#ef468c"/><stop offset="1"/></linearGradient><rect fill="#333" height="55" rx="27.5" stroke="#fcaf45" stroke-width="2" width="55" x="1" y="1"/><path d="M28.5 9c1.894 0 3.444 1.755 3.444 3.9s-1.55 3.9-3.444 3.9-3.444-1.755-3.444-3.9S26.606 9 28.5 9zM44 22.65H33.667V48h-3.445V36.3h-3.444V48h-3.445V22.65H13v-3.9h31z" fill="url(#a)"/></svg>
